ids-wordpress/site-IdS/assets/images/icones redes sociais/linkedin.svg

<svg width="25" height="25" viewBox="0 0 25 25" fill="none" xmlns="http://www.w3.org/2000/svg">
<g clip-path="url(#clip0_565_479)">
<path fill-rule="evenodd" clip-rule="evenodd" d="M21.124 3.1499H4.62402C3.7956 3.1499 3.12402 3.82148 3.12402 4.6499V21.1499C3.12402 21.9783 3.7956 22.6499 4.62402 22.6499H21.124C21.9524 22.6499 22.624 21.9783 22.624 21.1499V4.6499C22.624 3.82148 21.9524 3.1499 21.124 3.1499ZM21.124 21.1499H4.62402V4.6499H21.124V21.1499ZM9.87402 11.3999V17.3999C9.87402 17.8141 9.53824 18.1499 9.12402 18.1499C8.70981 18.1499 8.37402 17.8141 8.37402 17.3999V11.3999C8.37402 10.9857 8.70981 10.6499 9.12402 10.6499C9.53824 10.6499 9.87402 10.9857 9.87402 11.3999ZM18.124 14.0249V17.3999C18.124 17.8141 17.7882 18.1499 17.374 18.1499C16.9598 18.1499 16.624 17.8141 16.624 17.3999V14.0249C16.624 12.9894 15.7846 12.1499 14.749 12.1499C13.7135 12.1499 12.874 12.9894 12.874 14.0249V17.3999C12.874 17.8141 12.5382 18.1499 12.124 18.1499C11.7098 18.1499 11.374 17.8141 11.374 17.3999V11.3999C11.3759 11.0197 11.6621 10.701 12.04 10.6584C12.4179 10.6158 12.7678 10.8628 12.8543 11.233C13.8883 10.5316 15.225 10.4588 16.329 11.0437C17.433 11.6286 18.1236 12.7755 18.124 14.0249ZM10.249 8.7749C10.249 9.39622 9.74534 9.8999 9.12402 9.8999C8.5027 9.8999 7.99902 9.39622 7.99902 8.7749C7.99902 8.15358 8.5027 7.6499 9.12402 7.6499C9.74534 7.6499 10.249 8.15358 10.249 8.7749Z" fill="#3A3A3A"/>
</g>
<defs>
<clipPath id="clip0_565_479">
<rect width="24" height="24" fill="white" transform="translate(0.874023 0.899902)"/>
</clipPath>
</defs>
</svg>

<svg xmlns="http://www.w3.org/2000/svg" width="25" height="25" fill="none"><g clip-path="url(#a)"><path fill="#3A3A3A" fill-rule="evenodd" d="M21.124 3.15h-16.5a1.5 1.5 0 0 0-1.5 1.5v16.5a1.5 1.5 0 0 0 1.5 1.5h16.5a1.5 1.5 0 0 0 1.5-1.5V4.65a1.5 1.5 0 0 0-1.5-1.5Zm0 18h-16.5V4.65h16.5v16.5ZM9.874 11.4v6a.75.75 0 0 1-1.5 0v-6a.75.75 0 0 1 1.5 0Zm8.25 2.625V17.4a.75.75 0 0 1-1.5 0v-3.375a1.875 1.875 0 1 0-3.75 0V17.4a.75.75 0 0 1-1.5 0v-6a.75.75 0 0 1 1.48-.167 3.375 3.375 0 0 1 5.27 2.792Zm-7.875-5.25a1.125 1.125 0 1 1-2.25 0 1.125 1.125 0 0 1 2.25 0Z" clip-rule="evenodd"/></g><defs><clipPath id="a"><path fill="#fff" d="M.874.9h24v24h-24z"/></clipPath></defs></svg>
